X: 1
T: Mr Robb Quint
C: Pat Clark
R: jig
B: "The Strathspey Anniversary Collection" 2011 ed. Anselm Lingnau
N: Ten new country dances in the Scottish tradition devised by readers of the Strathspey mailing list
Z: 2011 John Chambers <jc:trillian.mit.edu>
M: 6/8
L: 1/8
K: G
"D7"D |\
"G"{A}G>FG "D7"AFD | "G"B>^AB "D7"cAD | "Am/C"E>FG "Am"ABc | "G/B"d>cB "Am"c>BA |
"G"BAG "D/F#"AFD | "A7"EFE "D7"D2D | "G"G>FG "D7"AFD | "G"B^AB "D7"cAD |\
"G/B"d>ed "Am/C"cAF | "D7"DEF "G"G2 |]
c/d/ |\
"Am/C"e>fe "G/B"d>^cd | "Am"=c>dc | "G"Bcd | "Am/C"e>fe "G/B"dgf | "A7/C#"eag "D7"fef |
"Em"g2B "G/B"e2d- | "A7"d>e^c "D"d2f | "Am"e>ag "B7"f2^d | "C"e>fe "G/B"d2_d |\
"Am"c>dc "G"Bdg- | "D7"g2f "G"g2 :|
